X:163
T:Oh Susanna
C:Stephen Foster 1847
N:California Gold Rush Song
M:4/4
L:1/4
K:G
G/2A/2|: B d d3/2 e/2| d B G3/2 A/2| B B A G| A3 G/A/|
      | B d d3/2 e/2| d B G3/2 A/2|B B A A|1 G3 G/A/:|2 G GAB|
      | c2 c2 |e e3|e d/d/BG| A2GA | B d d3/2 e/|d B G3/2 A/2| B B A A|G4|
